X:1
T: Gypsy Hornpipe
C:
R:Reel
Q: 232
K:C
M:4/4
L:1/8
|:c2|Bc Bc Gc Bc|ec gc ac gc|Gc Bc Gc Bc|e2 d2 d4|
Gc Bc Gc Bc|ec gc ac gc|Gc Bd ca gf|e2 c2 c2:|
|:ef|ga gf ef ed|cd cB AG FE|EG cG EF GE|F2 D2 D2 ef|
ga gf ef ed|cd cB AG FE|EG cG Fa gf|e2 c2 c2:|
